!! 00048] TT[KA
!! NN
!!!OTL: Zhuang xie haozi
!!!ARE: Asia, China,ÿLiaoning, Dalian
!! Ethnic Group: Han
!! III, 241
!!!SCT: C0292
!!!YEM: Copyright 1995, estate of Helmut Schaffrath.
**kern
*ICvox
*Ivox
*M4/4
*k[f#]
*G:
{2ee
4dd
8.dd
16ee
=1
4gg
8ee
8b
4dd
4dd}
=2
{4ee
8.ee
16b
4dd
8ee
16dd
16ee
=3
4dd
4b
4a
4a}
=4
{16.ee
32ee
16ee
16ee
8dd
16cc
16b
4b
4dd
=5
4ee
8ee
8gg
4g
8g
8e}
=6
{8a
16a
16g#
8a
8b
4dd
8dd
8ee
=7
4gg
8ee
8b
4dd
4dd}
=8
{8ee
16ee
16ee
8cc#
8dd
4ee
4ee
=9
4dd
4b
4a
4a}
=10
{8.ee
16ee
8dd#
8ee
4b
4dd
=11
4ee
8ee
8gg
4g
8g
8e}
=12
{8dd
8b
8a
8b
4dd
8dd
8ee
=13
4gg
8ee
8b
4dd
4dd}
=14
{4ee
8aa
8ff#
4ee
4ee
=15
4dd
4b
4a
4a}
=16
{16.ee
32ee
16ee
16ee
8dd
16dd
16cc
4b
4dd
=17
4ee
8ee
8gg
4g
8g
8e}
=18
{16f#
16g
8f#
8a
8b
4dd
8dd
8ee
=19
4gg
8ee
8b
4dd
4dd}
=20
{4cc#
8cc#
8dd
4ee
4ee
=21
4dd
4b
4a
4a}
=22
{8ee
8ee
8dd
8dd
4b
4dd
=23
8ee
8gg
8ee
8gg
4g
8g
8e}
=24
{8cc#
16dd
16b
8a
8b
4dd
8dd
8ee
=25
4gg
8.ee
16b
4dd
4dd}
=26
{4cc#
8cc#
8dd
4ee
4ee
=27
4dd
4b
4a
4a}
=28
{16ee
16dd
[8dd
2.dd]
=29
8ff#
4.aa
4ee
[4ee
=30
2ee]
2ee}
=31
{4dd
4cc#
8dd
8cc#
4r
=32
16ee
16ee
16ee
[16aa
2.aa]
=33
1ee}
=34
{4dd
4cc#
8dd
8cc#
4r
=35
8ee
[8aa
2.aa]}
=36
{4dd
4cc#
8dd
8cc#
4r
=37
8ee
8ee
2.aa
=38
1ee}
=39
{4dd
4cc#
8dd
8cc#
4r
=40
1g
=41
4ee
0ggx
4r}
==
!!!AGN: Haozi, Zhuangyie haozi. Matou zhangxie shi chang
!! sehr bekannt, d.h. im ganzen Land verbreitet. Nur nach jedem
!!    dritten Satz kann die Arbeit unterbrochen werden. Eine Periode
!!   , Strophe?) hat drei Saetze, = haeufig bei Arbeitsliedern).
!!    Bis Phr. 16 teilen sich zwei Saenger taktweise das Singen. Ab Phr.16
!!    ist nur noch die Oberstimme kodiert, die 2. Stimme ist unbedeutend.
!!    Einige Verzierungen und Glissandi.
!!!ONB: ESAC (Essen Associative Code) Database: CHINA
!!!AMT: simple quadruple
!!!AIN: vox
!!!EED: Helmut Schaffrath
!!!EEV: 1.0
*-
!!!ONB: Tied note syntax fixed by Craig Sapp, 2004/05/03/
